svgs/sharp-light/menorah.svg

<svg xmlns="http://www.w3.org/2000/svg" viewBox="0 0 640 512"><!--! Font Awesome Pro 6.6.0 by @fontawesome - https://fontawesome.com License - https://fontawesome.com/license (Commercial License) Copyright 2024 Fonticons, Inc. --><path d="M48 16l0 64 0 16L16 96l0-16 0-64L16 0 48 0l0 16zm96 0l0 64 0 16-32 0 0-16 0-64 0-16 32 0 0 16zm96 0l0 64 0 16-32 0 0-16 0-64 0-16 32 0 0 16zm96 0l0 64 0 16-32 0 0-16 0-64 0-16 32 0 0 16zm96 0l0 64 0 16-32 0 0-16 0-64 0-16 32 0 0 16zm96 0l0 64 0 16-32 0 0-16 0-64 0-16 32 0 0 16zm96 0l0 64 0 16-32 0 0-16 0-64 0-16 32 0 0 16zM48 128l0 16 0 160c0 26.5 21.5 48 48 48l16 0 0-208 0-16 32 0 0 16 0 208 64 0 0-208 0-16 32 0 0 16 0 208 64 0 0-208 0-16 32 0 0 16 0 208 64 0 0-208 0-16 32 0 0 16 0 208 64 0 0-208 0-16 32 0 0 16 0 208 16 0c26.5 0 48-21.5 48-48l0-160 0-16 32 0 0 16 0 160c0 44.2-35.8 80-80 80l-16 0-32 0-64 0-32 0-64 0 0 96 160 0 16 0 0 32-16 0-176 0-176 0-16 0 0-32 16 0 160 0 0-96-64 0-32 0-64 0-32 0-16 0c-44.2 0-80-35.8-80-80l0-160 0-16 32 0z"/></svg>

<svg xmlns="http://www.w3.org/2000/svg" viewBox="0 0 640 512"><!--! Font Awesome Pro 6.4.0 by @fontawesome - https://fontawesome.com License - https://fontawesome.com/license (Commercial License) Copyright 2023 Fonticons, Inc. --><path d="M48 16V80 96H16V80 16 0H48V16zm96 0V80 96H112V80 16 0h32V16zm96 0V80 96H208V80 16 0h32V16zm96 0V80 96H304V80 16 0h32V16zm96 0V80 96H400V80 16 0h32V16zm96 0V80 96H496V80 16 0h32V16zm96 0V80 96H592V80 16 0h32V16zM48 128l0 16 0 160c0 26.5 21.5 48 48 48h16V144 128h32v16V352h64V144 128h32v16V352h64l0-208V128h32v16l0 208h64V144 128h32v16V352h64V144 128h32v16V352h16c26.5 0 48-21.5 48-48l0-160V128h32v16l0 160c0 44.2-35.8 80-80 80H528 496 432 400 336v96H496h16v32H496 320 144 128V480h16H304V384H240 208 144 112 96c-44.2 0-80-35.8-80-80l0-160 0-16H48z"/></svg>
